svgs/sharp-regular/columns-3.svg

<svg xmlns="http://www.w3.org/2000/svg" viewBox="0 0 640 512"><!--! Font Awesome Pro 6.6.0 by @fontawesome - https://fontawesome.com License - https://fontawesome.com/license (Commercial License) Copyright 2024 Fonticons, Inc. --><path d="M448 80l0 352 144 0 0-352L448 80zm-48 0L240 80l0 352 160 0 0-352zM192 432l0-352L48 80l0 352 144 0zM0 32l48 0 544 0 48 0 0 48 0 352 0 48-48 0L48 480 0 480l0-48L0 80 0 32z"/></svg>

<svg xmlns="http://www.w3.org/2000/svg" viewBox="0 0 640 512"><!--! Font Awesome Pro 6.4.0 by @fontawesome - https://fontawesome.com License - https://fontawesome.com/license (Commercial License) Copyright 2023 Fonticons, Inc. --><path d="M448 80V432H592V80H448zm-48 0H240V432H400V80zM192 432V80H48V432H192zM0 32H48 592h48V80 432v48H592 48 0V432 80 32z"/></svg>
